symbols/web/calendar_today/materialsymbolssharp/calendar_today_wght100grad200_40px.svg

<svg xmlns="http://www.w3.org/2000/svg" height="40" width="40"><path d="M6.292 35.333V7.708H12V4.167h1.917v3.541H26.25V4.167h1.792v3.541h5.666v27.625ZM8 33.625h24v-16.25H8Zm0-18h24V9.458H8Zm0 0V9.458v6.167Z"/></svg>

<svg xmlns="http://www.w3.org/2000/svg" height="40" width="40"><path d="M6.292 35.333V7.708H12V4.167H13.917V7.708H26.25V4.167H28.042V7.708H33.708V35.333ZM8 33.625H32V17.375H8ZM8 15.625H32V9.458H8ZM8 15.625V9.458V15.625Z"/></svg>
